hosted/assets/icon/widgets/dark-mode/button.svg

<svg width="50" height="50" viewBox="0 0 50 50" fill="none" xmlns="http://www.w3.org/2000/svg">
<rect x="1" y="14" width="47" height="22" fill="#4A6BB7"/>
<path d="M4 12C1.80078 12 0 13.8008 0 16V34C0 36.1992 1.80078 38 4 38H46C48.1992 38 50 36.1992 50 34V16C50 13.8008 48.1992 12 46 12H4ZM4 14H46C47.1172 14 48 14.8828 48 16V34C48 35.1172 47.1172 36 46 36H4C2.88281 36 2 35.1172 2 34V16C2 14.8828 2.88281 14 4 14ZM33.5273 22.3086C31.8359 22.3086 30.7461 23.4453 30.7461 25.2773C30.7461 27.1133 31.8242 28.25 33.5273 28.25C35.2188 28.25 36.2969 27.1133 36.2969 25.2773C36.2969 23.4453 35.2188 22.3086 33.5273 22.3086ZM6.91406 22.4648V28.0977H9.61719C10.8242 28.0977 11.5898 27.4609 11.5898 26.4727C11.5898 25.7539 11.0156 25.1797 10.2812 25.1406V25.0664C10.8789 24.9844 11.3281 24.4727 11.3281 23.8672C11.3281 22.9922 10.668 22.4648 9.54297 22.4648H6.91406ZM13.0156 22.4648V26.1523C13.0156 27.418 13.9805 28.25 15.4453 28.25C16.9102 28.25 17.8711 27.418 17.8711 26.1523V22.4648H16.4375V26C16.4375 26.6562 16.082 27.0469 15.4453 27.0469C14.8086 27.0469 14.4492 26.6562 14.4492 26V22.4648H13.0156ZM19.2969 22.4648V23.6133H20.9219V28.0977H22.3477V23.6133H23.9805V22.4648H19.2969ZM25.0898 22.4648V23.6133H26.7148V28.0977H28.1445V23.6133H29.7734V22.4648H25.0898ZM37.7617 22.4648V28.0977H39.1211V24.8945H39.1953L41.5508 28.0977H42.6875V22.4648H41.3281V25.6367H41.2539L38.9062 22.4648H37.7617ZM8.34766 23.4727H9.16016C9.64844 23.4727 9.93359 23.7148 9.93359 24.1172C9.93359 24.5156 9.62891 24.7617 9.10547 24.7617H8.34766V23.4727ZM33.5234 23.4961C34.3125 23.4961 34.8398 24.1914 34.8398 25.2773C34.8398 26.3672 34.3164 27.0625 33.5234 27.0625C32.7227 27.0625 32.2031 26.3672 32.2031 25.2773C32.2031 24.1914 32.7305 23.4961 33.5234 23.4961ZM8.34766 25.6289H9.20312C9.80078 25.6289 10.1328 25.8867 10.1328 26.3477C10.1328 26.8242 9.80859 27.0898 9.21484 27.0898H8.34766V25.6289Z" fill="white"/>
</svg>

<svg width="50" height="50" fill="none" xmlns="http://www.w3.org/2000/svg"><path fill="#4A6BB7" d="M1 14h47v22H1z"/><path d="M4 12c-2.2 0-4 1.8-4 4v18c0 2.2 1.8 4 4 4h42c2.2 0 4-1.8 4-4V16c0-2.2-1.8-4-4-4H4zm0 2h42c1.117 0 2 .883 2 2v18c0 1.117-.883 2-2 2H4c-1.117 0-2-.883-2-2V16c0-1.117.883-2 2-2zm29.527 8.309c-1.691 0-2.78 1.136-2.78 2.968 0 1.836 1.077 2.973 2.78 2.973 1.692 0 2.77-1.137 2.77-2.973 0-1.832-1.078-2.968-2.77-2.968zm-26.613.156v5.633h2.703c1.207 0 1.973-.637 1.973-1.625 0-.72-.574-1.293-1.309-1.332v-.075a1.212 1.212 0 001.047-1.199c0-.875-.66-1.402-1.785-1.402H6.914zm6.102 0v3.687c0 1.266.964 2.098 2.43 2.098 1.464 0 2.425-.832 2.425-2.098v-3.687h-1.433V26c0 .656-.356 1.047-.993 1.047-.636 0-.996-.39-.996-1.047v-3.535h-1.433zm6.28 0v1.148h1.626v4.485h1.426v-4.485h1.633v-1.148h-4.684zm5.794 0v1.148h1.625v4.485h1.43v-4.485h1.628v-1.148H25.09zm12.672 0v5.633h1.36v-3.203h.073l2.356 3.203h1.136v-5.633h-1.359v3.172h-.074l-2.348-3.172h-1.144zM8.348 23.473h.812c.488 0 .774.242.774.644 0 .399-.305.645-.829.645h-.757v-1.29zm25.175.023c.79 0 1.317.695 1.317 1.781 0 1.09-.524 1.785-1.317 1.785-.8 0-1.32-.695-1.32-1.785 0-1.086.527-1.78 1.32-1.78zM8.348 25.63h.855c.598 0 .93.258.93.719 0 .476-.324.742-.918.742h-.867V25.63z" fill="#fff"/></svg>
